X:1
T:Title
%%score { 1 | 2 }
L:1/8
M:2/4
K:Ab
V:1 treble nm="Grand Piano"
V:2 bass 
V:1
 z2 z[Q:1/4=84] [CE] | [CE][DF] [DG][CA] | A G2 F | Ed dd |[M:3/8] c3 |[M:1/8] [Ec] | %6
[M:2/4] [=Dc][DB] [DB][DA] | G B2 [Ec] | [EB][EG] [=DA][DF] |[M:3/8] E3 |[M:1/8] E | %11
[M:2/4] [CE][DF] [DG][CA] | A G2 F | Ed dd |[M:3/8] c3 |[M:1/8] c |[M:2/4] cA c[_Ge] | %17
 [Fe] [Fd]2 [DFB] | [CEA]<[EAc] [DGB]>[Ec] |[M:3/8] [CEA]3 |[M:1/8] [CE] | %21
[M:2/4] [CEA]<[EAc] [DGB]>[EGc] | [CA]3 [A,EG] | [A,DF]<[Fd] [DF]>[Fd] | c3 c | e>e c[E_GA] | %26
[M:9/16] [DFA]>[DFA][FAd]-[FAd]/[FAd] |[M:2/4] [EAc]<[Ae] [DGB]>[Ec] |[M:3/8] [A,CEA]3 |] %29
V:2
 z2 z [A,,A,] | [A,,A,][A,,A,] [A,,A,][A,,A,] | [E,B,D] [E,B,D]2 [E,G,D] | %3
 [E,G,D][E,G,E] [F,A,E][G,B,E] |[M:3/8] [A,E]3 |[M:1/8] [A,,A,] | %6
[M:2/4] [B,,A,][B,,A,] [B,,A,][B,,F,] | [E,E] [E,G,E]2 [A,,A,] | [B,,G,][B,,B,] [B,,B,][B,,A,] | %9
[M:3/8] [E,G,]3 |[M:1/8] [E,G,D] |[M:2/4] [A,,A,][A,,A,] [A,,A,][A,,A,] | %12
 [E,B,D] [E,B,D]2 [E,G,D] | [E,G,D][E,G,E] [F,A,E][K:treble][G,B,E] |[M:3/8] [A,E]3 | %15
[M:1/8] [A,E] |[M:2/4] [A,E][A,CE] [A,EA][K:bass][C,A,] | [D,A,] [D,A,]2 D, | E,<E, E,>E, | %19
[M:3/8] A,,3 |[M:1/8] A, |[M:2/4] A,<A, E,>E, | A,3 C, | D,<[D,A,] [D,A,]>[D,A,] | [A,E]3 [A,E] | %25
 [A,CA]>[A,CA] [A,EA][K:bass]C, |[M:9/16] D,>D,D,-D,/D, |[M:2/4] E,<[E,C] E,>E, |[M:3/8] A,,3 |] %29

